X:57
T:Mabel Waltzes
M:3/4
Z:posted by Tony Ludiker 11/98
K:C
"C"E4F2|G6|"G7"F4E2|D6|
"C"E4F2|G4A2|"G7"G2(B4|B6)|
"F"A4B2|c6|"C"G4F2|"Am"E6|
"G7"D2F4|G,4B,2|"C"(C6|C6):||
"F"A4B2|c6|"Em"B4G2|E6|
"F"A4A2|G4F2|"C"E2(G4|G6)|
"F"F4E2|"G7"D6|"C"G4E2|"Am"C6|
"G7"D2G,4|B,4E2|"C"(C6|C6):|
